src/assets/images/skills/git.svg

<?xml version="1.0" encoding="UTF-8" standalone="no"?>
<svg width="64px" height="64px" viewBox="0 0 64 64" version="1.1" xmlns="http://www.w3.org/2000/svg" xmlns:xlink="http://www.w3.org/1999/xlink">
    <defs></defs>
    <g id="Tools" stroke="none" stroke-width="1" fill="none" fill-rule="evenodd">
        <g id="icons/skills/id-191">
            <path d="M34.6714032,3.13145556 C33.1637464,1.62284815 30.7168935,1.62284815 29.2068602,3.13145556 L3.13181204,29.2060284 C1.62272932,30.7160617 1.62272932,33.1629146 3.13181204,34.6719973 L29.3290127,60.8677721 C30.8376201,62.3763795 33.2835224,62.3763795 34.7945063,60.8677721 L60.8686038,34.7936745 C62.3772113,33.2841165 62.3772113,30.8358377 60.8681285,29.3272303 L34.6714032,3.13145556 Z" id="Shape" fill="#F34F29"></path>
            <path d="M27.6925007,18.1035518 C27.4760101,18.6400144 27.3568291,19.2261848 27.3568291,19.8401914 C27.3568291,21.6884501 28.4367368,23.2844828 30,24.0317374 L30,40.7825349 C28.5143559,41.5569209 27.5,43.1112901 27.5,44.9025748 C27.5,47.4669273 29.5788184,49.5457457 32.1431709,49.5457457 C34.7075234,49.5457457 36.7863418,47.4669273 36.7863418,44.9025748 C36.7863418,42.9984085 35.6401141,41.361958 34,40.6455644 L34,24.4110511 L40.2085291,30.6195802 C40.0730049,31.0555497 40,31.5190562 40,31.9996138 C40,34.5639663 42.0788184,36.6427847 44.6431709,36.6427847 C47.2075234,36.6427847 49.2863418,34.5639663 49.2863418,31.9996138 C49.2863418,29.4352613 47.2075234,27.3564429 44.6431709,27.3564429 C44.0377033,27.3564429 43.4593031,27.4723321 42.9289419,27.6831388 L36.4420301,21.196227 C36.5728174,20.7672602 36.6431709,20.3119417 36.6431709,19.8401914 C36.6431709,17.2758389 34.5643525,15.1970205 32,15.1970205 C31.5282496,15.1970205 31.0729312,15.267374 30.6439644,15.3981613 L23.7759083,8.5301052 L20.9474812,11.3585323 L27.6925007,18.1035518 L27.6925007,18.1035518 Z" id="Oval-3" fill="#FFFFFF"></path>
        </g>
    </g>
</svg>

<svg xmlns="http://www.w3.org/2000/svg" width="64" height="64" fill-rule="evenodd" xmlns:v="https://vecta.io/nano"><path d="M34.67 3.13c-1.508-1.51-3.955-1.51-5.465 0L3.132 29.206c-1.51 1.5-1.51 3.957 0 5.466L29.33 60.868c1.51 1.51 3.955 1.51 5.465 0L60.87 34.794a3.87 3.87 0 0 0 0-5.466L34.67 3.13z" fill="#f34f29"/><path d="M27.693 18.104a4.63 4.63 0 0 0-.336 1.737c0 1.848 1.08 3.444 2.643 4.192v16.75c-1.486.774-2.5 2.33-2.5 4.12 0 2.564 2.08 4.643 4.643 4.643s4.643-2.08 4.643-4.643c0-1.904-1.146-3.54-2.786-4.257V24.41l6.21 6.21A4.64 4.64 0 0 0 40 32c0 2.564 2.08 4.643 4.643 4.643s4.643-2.08 4.643-4.643-2.08-4.643-4.643-4.643a4.63 4.63 0 0 0-1.714.327l-6.487-6.487c.13-.43.2-.884.2-1.356 0-2.564-2.08-4.643-4.643-4.643-.472 0-.927.07-1.356.2L23.776 8.53l-2.828 2.828 6.745 6.745z" fill="#fff"/></svg>
